lib/preview/nrk-logo-preview-nrk-p1-on-light.svg

<svg width="53" height="14" viewBox="0 0 53 14" fill="none" xmlns="http://www.w3.org/2000/svg">
<path d="M0 12.9977V0.998832H3.93719V12.9977H0ZM9.29381 2.90852L11.5581 12.9977H7.24917L4.54549 0.998832H6.96218C7.51635 0.99164 8.05406 1.18699 8.4745 1.54813C8.89562 1.89412 9.18495 2.37444 9.29381 2.90852ZM12.1495 12.9977V0.998832H16.0867V12.9977H12.1495ZM19.0605 5.56184C18.6362 5.56598 18.2188 5.45497 17.8525 5.24071C17.4912 5.03186 17.1911 4.7317 16.9823 4.37034C16.7678 4.00407 16.6568 3.5865 16.661 3.16206C16.6561 2.7402 16.7672 2.32512 16.9823 1.96217C17.1933 1.60473 17.4931 1.30784 17.8525 1.10026C18.2189 0.886244 18.6362 0.775256 19.0605 0.779126C19.4822 0.774584 19.8971 0.885671 20.2602 1.10026C20.616 1.30965 20.9127 1.6063 21.122 1.96217C21.3368 2.32522 21.4479 2.74024 21.4433 3.16206C21.4473 3.58647 21.3363 4.00397 21.122 4.37034C20.9149 4.73012 20.6179 5.03002 20.2602 5.24071C19.8971 5.45572 19.4819 5.56683 19.0599 5.56184H19.0605ZM22.0516 12.9977V0.998832H25.9892V12.9977H22.0516ZM30.9737 7.55598C30.9848 7.56762 31.0693 7.70563 31.2272 7.97001C31.3851 8.2344 31.5906 8.57243 31.8439 8.98403C32.0974 9.39545 32.3649 9.832 32.6463 10.2937C32.9278 10.7555 33.1926 11.1921 33.4408 11.6035C33.6881 12.0149 33.9697 12.4797 34.2857 12.9977H29.9598C29.6893 12.5583 29.4441 12.1612 29.2245 11.8063C29.0048 11.4514 28.7713 11.0683 28.5238 10.6571C28.2758 10.2462 28.0306 9.84628 27.7882 9.45721C27.5458 9.06814 27.3375 8.72736 27.1633 8.4348C26.9883 8.14206 26.8671 7.94487 26.7997 7.84328C26.6325 7.59119 26.5336 7.30004 26.5127 6.99829C26.5294 6.70868 26.6226 6.42872 26.7828 6.18685C26.8504 6.07419 26.9743 5.87417 27.1545 5.58687C27.3348 5.29958 27.546 4.9588 27.7882 4.56447C28.0304 4.17014 28.2756 3.76735 28.5238 3.35612C28.772 2.94489 29.0056 2.55898 29.2245 2.19845C29.4445 1.83829 29.6897 1.43833 29.9598 0.998557H34.2857L30.9396 6.45724C30.8361 6.61931 30.7777 6.80609 30.7706 6.99829C30.7818 7.20006 30.8522 7.39406 30.9731 7.55598H30.9737Z" fill="#0A2343"/>
<path d="M47.0024 2.55392C46.7947 2.23336 46.528 1.95514 46.2166 1.73404C45.8694 1.49102 45.4838 1.3082 45.0759 1.19326C44.5808 1.05658 44.0686 0.991249 43.555 0.999215H38.8571V12.9974H40.6315V8.68819H43.6902C44.3805 8.69868 45.0618 8.52982 45.6674 8.19813C46.2475 7.87648 46.7294 7.40328 47.0615 6.82905C47.4174 6.19529 47.5955 5.47712 47.5769 4.75048C47.5784 4.35781 47.5331 3.96636 47.4418 3.58445C47.354 3.21877 47.2055 2.87043 47.0024 2.55392ZM45.4308 6.19561C45.2037 6.55199 44.8694 6.82713 44.476 6.98142C43.9986 7.16208 43.4907 7.24818 42.9804 7.23491H40.6315V2.46941H43.217C43.7109 2.45076 44.2024 2.54608 44.6535 2.74797C45.0123 2.92133 45.3056 3.20579 45.4899 3.55911C45.6852 3.95542 45.7809 4.39336 45.7688 4.83499C45.7883 5.3115 45.671 5.78362 45.4308 6.19561Z" fill="#1767CE"/>
<path d="M51.9538 0.999218C51.6832 1.13441 51.4268 1.26679 51.1846 1.39635C50.9424 1.52591 50.7059 1.64699 50.4751 1.75965C50.2438 1.87231 50.0099 1.98499 49.7736 2.09765C49.5372 2.21031 49.2949 2.31169 49.0469 2.40182C48.799 2.49232 48.5344 2.58235 48.253 2.67192L48.6244 4.10832C48.9624 4.00692 49.2694 3.90554 49.5454 3.80415C49.8158 3.70527 50.0809 3.59247 50.3397 3.46618C50.5933 3.34226 50.8468 3.20705 51.1001 3.06059L51.1088 3.05554V12.9977H52.866V0.999493L51.9538 0.999218Z" fill="#1767CE"/>
</svg>

<svg xmlns="http://www.w3.org/2000/svg" viewBox="0 0 53 14"><path fill="#0A2343" d="M0 12.998v-12h3.937v12H0Zm9.294-10.09 2.264 10.09H7.25l-2.704-12h2.417a2.276 2.276 0 0 1 1.513.55c.42.346.71.826.819 1.36Zm2.855 10.09v-12h3.938v12h-3.938Zm6.912-7.436a2.382 2.382 0 0 1-2.4-2.4 2.301 2.301 0 0 1 .321-1.2A2.41 2.41 0 0 1 20.26 1.1c.356.21.653.506.862.862.215.363.326.778.321 1.2a2.35 2.35 0 0 1-.321 1.208 2.4 2.4 0 0 1-.862.87 2.302 2.302 0 0 1-1.2.322Zm2.99 7.436v-12h3.938v12h-3.937Zm8.923-5.442c.01.012.095.15.253.414s.364.602.617 1.014a317.184 317.184 0 0 1 1.597 2.62c.247.41.529.876.845 1.394H29.96c-.27-.44-.516-.837-.736-1.192-.22-.355-.453-.738-.7-1.149-.248-.41-.493-.81-.736-1.2-.242-.389-.45-.73-.625-1.022-.175-.293-.296-.49-.363-.592a1.747 1.747 0 0 1-.287-.845c.016-.29.11-.57.27-.811.067-.113.191-.313.371-.6s.392-.628.634-1.023c.242-.394.488-.797.736-1.208l.7-1.158.736-1.2h4.326l-3.346 5.46a1.08 1.08 0 0 0-.17.54c.012.202.082.396.203.558Z"/><path fill="#1767CE" d="M47.002 2.554a3.019 3.019 0 0 0-.785-.82 3.774 3.774 0 0 0-1.141-.54 5.4 5.4 0 0 0-1.521-.195h-4.698v11.998h1.775V8.688h3.058a3.99 3.99 0 0 0 1.977-.49 3.662 3.662 0 0 0 1.395-1.369 4.034 4.034 0 0 0 .515-2.079 4.934 4.934 0 0 0-.135-1.166 3.361 3.361 0 0 0-.44-1.03Zm-1.571 3.642a1.997 1.997 0 0 1-.955.785c-.477.181-.985.267-1.496.254h-2.348V2.469h2.585c.494-.018.985.077 1.437.279.358.173.652.458.836.811.195.396.29.834.279 1.276.02.476-.098.949-.338 1.36ZM51.954 1c-.27.134-.527.267-.77.396-.242.13-.478.251-.709.364l-.701.338a8.194 8.194 0 0 1-.727.304c-.248.09-.513.18-.794.27l.371 1.436c.338-.101.645-.202.921-.304a8.35 8.35 0 0 0 .795-.338c.253-.124.507-.259.76-.405l.009-.005v9.942h1.757V.999h-.912Z"/></svg>
